templates/flag_icons/hr.svg

<svg width="23" height="17" viewBox="0 0 23 17" xmlns="http://www.w3.org/2000/svg" xmlns:xlink="http://www.w3.org/1999/xlink"><title>HR</title><defs><linearGradient x1="50%" y1="0%" x2="50%" y2="100%" id="c"><stop stop-color="#FFF" offset="0%"/><stop stop-color="#F0F0F0" offset="100%"/></linearGradient><rect id="a" width="21" height="15" rx="1.5"/><filter x="-50%" y="-50%" width="200%" height="200%" filterUnits="objectBoundingBox" id="b"><feOffset dy=".5" in="SourceAlpha" result="shadowOffsetOuter1"/><feGaussianBlur stdDeviation=".5" in="shadowOffsetOuter1" result="shadowBlurOuter1"/><feColorMatrix values="0 0 0 0 0 0 0 0 0 0 0 0 0 0 0 0 0 0 0.16 0" in="shadowBlurOuter1"/></filter><linearGradient x1="50%" y1="0%" x2="50%" y2="100%" id="g"><stop stop-color="#FF202D" offset="0%"/><stop stop-color="#FD0D1B" offset="100%"/></linearGradient><path id="f" d="M0 0h21v5H0z"/><filter x="-50%" y="-50%" width="200%" height="200%" filterUnits="objectBoundingBox" id="e"><feMorphology radius=".25" operator="dilate" in="SourceAlpha" result="shadowSpreadOuter1"/><feOffset in="shadowSpreadOuter1" result="shadowOffsetOuter1"/><feColorMatrix values="0 0 0 0 0 0 0 0 0 0 0 0 0 0 0 0 0 0 0.06 0" in="shadowOffsetOuter1"/></filter><linearGradient x1="50%" y1="0%" x2="50%" y2="100%" id="j"><stop stop-color="#2026AD" offset="0%"/><stop stop-color="#191F94" offset="100%"/></linearGradient><path id="i" d="M0 10h21v5H0z"/><filter x="-50%" y="-50%" width="200%" height="200%" filterUnits="objectBoundingBox" id="h"><feMorphology radius=".25" operator="dilate" in="SourceAlpha" result="shadowSpreadOuter1"/><feOffset in="shadowSpreadOuter1" result="shadowOffsetOuter1"/><feColorMatrix values="0 0 0 0 0 0 0 0 0 0 0 0 0 0 0 0 0 0 0.06 0" in="shadowOffsetOuter1"/></filter><path d="M0 10h21V5H0v5zm12 0h1l-.27.55A.9.9 0 0 1 12 11v-1zm-2 0h1v1h-1v-1zm-2 0h1v1a.9.9 0 0 1-.73-.45L8 10z" id="l"/><filter x="-50%" y="-50%" width="200%" height="200%" filterUnits="objectBoundingBox" id="k"><feMorphology radius=".25" operator="dilate" in="SourceAlpha" result="shadowSpreadOuter1"/><feOffset in="shadowSpreadOuter1" result="shadowOffsetOuter1"/><feColorMatrix values="0 0 0 0 0 0 0 0 0 0 0 0 0 0 0 0 0 0 0.06 0" in="shadowOffsetOuter1"/></filter><linearGradient x1="50%" y1="0%" x2="50%" y2="100%" id="m"><stop stop-color="#FF202D" offset="0%"/><stop stop-color="#FD0D1B" offset="100%"/></linearGradient></defs><g transform="translate(1 1)" fill="none" fill-rule="evenodd"><mask id="d" fill="#fff"><use xlink:href="#a"/></mask><use fill="#000" filter="url(#b)" xlink:href="#a"/><use fill="url(#c)" xlink:href="#a"/><g mask="url(#d)"><use fill="#000" filter="url(#e)" xlink:href="#f"/><use fill="url(#g)" xlink:href="#f"/></g><path d="M8 4l.5-.5.5.5v1H8V4zm2 0l.5-.5.5.5v1h-1V4zm2 0l.5-.5.5.5v1h-1V4z" fill="#1895DB" opacity=".5" mask="url(#d)"/><path d="M9 4l.5-.5.5.5v1H9V4zm2 0l.5-.5.5.5v1h-1V4z" fill="#191F94" opacity=".5" mask="url(#d)"/><g mask="url(#d)"><use fill="#000" filter="url(#h)" xlink:href="#i"/><use fill="url(#j)" xlink:href="#i"/></g><g mask="url(#d)"><use fill="#000" filter="url(#k)" xlink:href="#l"/><use fill="url(#c)" xlink:href="#l"/></g><path d="M10 5h1v1h-1V5zm2 0h.5l.5 1h-1V5zM8.5 5H9v1H8l.5-1zM9 6h1v1H9V6zm2 0h1v1h-1V6zm-1 1h1v1h-1V7zm2 0h1v1h-1V7zm-1 1h1v1h-1V8zM8 7h1v1H8V7zm1 1h1v1H9V8zM8 9h1v1H8V9zm2 0h1v1h-1V9zm2 0h1v1h-1V9zm-1 1h1v1h-1v-1zm-2 0h1v1H9v-1z" fill="url(#m)" mask="url(#d)"/><rect mask="url(#d)" width="21" height="15" rx="1.5"/></g></svg>

<?xml version="1.0" encoding="UTF-8" standalone="no"?>
<svg width="23px" height="17px" viewBox="0 0 23 17" version="1.1" xmlns="http://www.w3.org/2000/svg" xmlns:xlink="http://www.w3.org/1999/xlink">
    <!-- Generator: Sketch 3.7.2 (28276) - http://www.bohemiancoding.com/sketch -->
    <title>HR</title>
    <desc>Created with Sketch.</desc>
    <defs>
        <linearGradient x1="50%" y1="0%" x2="50%" y2="100%" id="linearGradient-1">
            <stop stop-color="#FFFFFF" offset="0%"></stop>
            <stop stop-color="#F0F0F0" offset="100%"></stop>
        </linearGradient>
        <rect id="path-2" x="0" y="0" width="21" height="15" rx="1.5"></rect>
        <filter x="-50%" y="-50%" width="200%" height="200%" filterUnits="objectBoundingBox" id="filter-4">
            <feOffset dx="0" dy="0.5" in="SourceAlpha" result="shadowOffsetOuter1"></feOffset>
            <feGaussianBlur stdDeviation="0.5" in="shadowOffsetOuter1" result="shadowBlurOuter1"></feGaussianBlur>
            <feColorMatrix values="0 0 0 0 0   0 0 0 0 0   0 0 0 0 0  0 0 0 0.16 0" type="matrix" in="shadowBlurOuter1"></feColorMatrix>
        </filter>
        <linearGradient x1="50%" y1="0%" x2="50%" y2="100%" id="linearGradient-5">
            <stop stop-color="#FF202D" offset="0%"></stop>
            <stop stop-color="#FD0D1B" offset="100%"></stop>
        </linearGradient>
        <rect id="path-6" x="0" y="0" width="21" height="5"></rect>
        <filter x="-50%" y="-50%" width="200%" height="200%" filterUnits="objectBoundingBox" id="filter-7">
            <feMorphology radius="0.25" operator="dilate" in="SourceAlpha" result="shadowSpreadOuter1"></feMorphology>
            <feOffset dx="0" dy="0" in="shadowSpreadOuter1" result="shadowOffsetOuter1"></feOffset>
            <feColorMatrix values="0 0 0 0 0   0 0 0 0 0   0 0 0 0 0  0 0 0 0.06 0" type="matrix" in="shadowOffsetOuter1"></feColorMatrix>
        </filter>
        <linearGradient x1="50%" y1="0%" x2="50%" y2="100%" id="linearGradient-8">
            <stop stop-color="#2026AD" offset="0%"></stop>
            <stop stop-color="#191F94" offset="100%"></stop>
        </linearGradient>
        <rect id="path-9" x="0" y="10" width="21" height="5"></rect>
        <filter x="-50%" y="-50%" width="200%" height="200%" filterUnits="objectBoundingBox" id="filter-10">
            <feMorphology radius="0.25" operator="dilate" in="SourceAlpha" result="shadowSpreadOuter1"></feMorphology>
            <feOffset dx="0" dy="0" in="shadowSpreadOuter1" result="shadowOffsetOuter1"></feOffset>
            <feColorMatrix values="0 0 0 0 0   0 0 0 0 0   0 0 0 0 0  0 0 0 0.06 0" type="matrix" in="shadowOffsetOuter1"></feColorMatrix>
        </filter>
        <path d="M0,10 L21,10 L21,5 L0,5 L0,10 Z M12,10 L13,10 L12.726593,10.546814 C12.6014491,10.7971017 12.273407,11 12,11 L12,10 Z M10,10 L11,10 L11,11 L10,11 L10,10 Z M8,10 L9,10 L9,11 C8.72385763,11 8.40359497,10.8071899 8.27340698,10.546814 L8,10 Z" id="path-11"></path>
        <filter x="-50%" y="-50%" width="200%" height="200%" filterUnits="objectBoundingBox" id="filter-12">
            <feMorphology radius="0.25" operator="dilate" in="SourceAlpha" result="shadowSpreadOuter1"></feMorphology>
            <feOffset dx="0" dy="0" in="shadowSpreadOuter1" result="shadowOffsetOuter1"></feOffset>
            <feColorMatrix values="0 0 0 0 0   0 0 0 0 0   0 0 0 0 0  0 0 0 0.06 0" type="matrix" in="shadowOffsetOuter1"></feColorMatrix>
        </filter>
        <linearGradient x1="50%" y1="0%" x2="50%" y2="100%" id="linearGradient-13">
            <stop stop-color="#FF202D" offset="0%"></stop>
            <stop stop-color="#FD0D1B" offset="100%"></stop>
        </linearGradient>
    </defs>
    <g id="Flag-Kit" stroke="none" stroke-width="1" fill="none" fill-rule="evenodd">
        <g id="HR">
            <g id="AE-Copy-6" transform="translate(1.000000, 1.000000)">
                <mask id="mask-3" fill="white">
                    <use xlink:href="#path-2"></use>
                </mask>
                <g id="Mask">
                    <use fill="black" fill-opacity="1" filter="url(#filter-4)" xlink:href="#path-2"></use>
                    <use fill="url(#linearGradient-1)" fill-rule="evenodd" xlink:href="#path-2"></use>
                </g>
                <g id="Rectangle-2" mask="url(#mask-3)">
                    <use fill="black" fill-opacity="1" filter="url(#filter-7)" xlink:href="#path-6"></use>
                    <use fill="url(#linearGradient-5)" fill-rule="evenodd" xlink:href="#path-6"></use>
                </g>
                <path d="M8,4 L8.5,3.5 L9,4 L9,5 L8,5 L8,4 Z M10,4 L10.5,3.5 L11,4 L11,5 L10,5 L10,4 Z M12,4 L12.5,3.5 L13,4 L13,5 L12,5 L12,4 Z" id="Rectangle-675" fill="#1895DB" opacity="0.5" mask="url(#mask-3)"></path>
                <path d="M9,4 L9.5,3.5 L10,4 L10,5 L9,5 L9,4 Z M11,4 L11.5,3.5 L12,4 L12,5 L11,5 L11,4 Z" id="Rectangle-675" fill="#191F94" opacity="0.5" mask="url(#mask-3)"></path>
                <g id="Rectangle-2" mask="url(#mask-3)">
                    <use fill="black" fill-opacity="1" filter="url(#filter-10)" xlink:href="#path-9"></use>
                    <use fill="url(#linearGradient-8)" fill-rule="evenodd" xlink:href="#path-9"></use>
                </g>
                <g id="Rectangle-2" mask="url(#mask-3)">
                    <use fill="black" fill-opacity="1" filter="url(#filter-12)" xlink:href="#path-11"></use>
                    <use fill="url(#linearGradient-1)" fill-rule="evenodd" xlink:href="#path-11"></use>
                </g>
                <path d="M10,5 L11,5 L11,6 L10,6 L10,5 Z M12,5 L12.5,5 L13,6 L12,6 L12,5 Z M8.5,5 L9,5 L9,6 L8,6 L8.5,5 Z M9,6 L10,6 L10,7 L9,7 L9,6 Z M11,6 L12,6 L12,7 L11,7 L11,6 Z M10,7 L11,7 L11,8 L10,8 L10,7 Z M12,7 L13,7 L13,8 L12,8 L12,7 Z M11,8 L12,8 L12,9 L11,9 L11,8 Z M8,7 L9,7 L9,8 L8,8 L8,7 Z M9,8 L10,8 L10,9 L9,9 L9,8 Z M8,9 L9,9 L9,10 L8,10 L8,9 Z M10,9 L11,9 L11,10 L10,10 L10,9 Z M12,9 L13,9 L13,10 L12,10 L12,9 Z M11,10 L12,10 L12,11 L11,11 L11,10 Z M9,10 L10,10 L10,11 L9,11 L9,10 Z" id="Rectangle-657" fill="url(#linearGradient-13)" mask="url(#mask-3)"></path>
                <rect id="Depth" mask="url(#mask-3)" x="0" y="0" width="21" height="15" rx="1.5"></rect>
            </g>
        </g>
    </g>
</svg>
